X:1
T:Firenze (Towner), 886.86
T:Firenze (Towner), 886.86
T:Daniel Brink Towner, 1918
T:Public Domain Courtesy of the Cyber Hymnal™
C:Daniel Brink Towner, 1918
Z:Public Domain
Z:Courtesy of the Cyber Hymnal™
%%score ( 1 2 ) ( 3 4 )
L:1/8
Q:1/4=105
M:4/4
K:Ab
V:1 treble 
V:2 treble 
V:3 bass 
V:4 bass 
V:1
 [CE]2 | [Ec]3 [Fd] [Ec][EB][EA][EG] | [DF]6 [DF]2 | [=DB]3 [Dc] [DB][DA][DG][DF] | E6 E2 | %5
 [EA]3 [EA] [EB]2 [E=B]2 | [Ec]6 [Ec]2 | [Ae]3 [Ae] [Gd]2 [_Gc]2 | [FB]2 [Fc]2 [Fd]2 [FB]2 | %9
 [EA]2 [CE]2 [Ec]3 [DB] | [CA]6 |] %11
V:2
 x2 | x8 | x8 | x8 | E6 E2 | x8 | x8 | x8 | x8 | x8 | x6 |] %11
V:3
 [A,,A,]2 | [A,,A,]3 [A,,A,] [A,,A,][B,,A,][C,A,][C,A,] | [D,A,]6 [D,A,]2 | %3
 [B,,A,]3 [B,,A,] [B,,A,][B,,F,][B,,B,][B,,A,] | [E,G,]6 [D,B,]2 | [C,A,]3 [C,A,] [E,G,]2 [E,G,]2 | %6
 A,6 A,2 | [A,C]3 [A,C] [E,B,]2 [A,,A,]2 | [D,A,]2 [C,=A,]2 [B,,B,]2 [D,B,]2 | %9
 [E,C]2 [E,A,]2 [E,A,]3 [E,G,] | [A,,A,]6 |] %11
V:4
 x2 | x8 | x8 | x8 | x8 | x8 | A,6 A,2 | x8 | x8 | x8 | x6 |] %11

